X: 72
T: Les Capacins Maidons
%R: march, reel
B: Stewart "A Select Collection of Airs, Jigs, Marches and Reels", ca.1784, p.35 #72
F: http://imslp.org/wiki/A_Select_Collection_of_Airs,_Jigs,_Marches_and_Reels_%28Various%29
Z: 2017 John Chambers <jc:trillian.mit.edu>
M: C|
L: 1/8
K: G
g2d2 |\
B2G2 AGAB | G4 AGAB | c2B2 ABcA | B2G2 g2d2 |\
B2G2 AGAB | G4 AGAB | c2B2 AGAB | G4 :|
|: B2c2 |\
TB2A2 B2c2 | TB2A2 B2c2 | TB2A2 B2^c2 | d4 B2=c2 |\
TB2A2 B2c2 | TB2A2 B2c2 | TB2A2 B2^c2 | d4 g2d2 |
B2G2 AGAB | G4 AGAB | c2B2 ABcA | B2G2 g2d2 |\
B2G2 AGAB | G4 AGAB | c2B2 AGAB | G4 :|

%%sep 1 1 500
%%sep 1 1 500

